; generated by SuperSlicer 2.5.59 on 2023-06-08 at 18:53:23 UTC

; 

; external perimeters extrusion width = 0.44mm
; perimeters extrusion width = 0.46mm
; infill extrusion width = 0.44mm
; solid infill extrusion width = 0.46mm
; top infill extrusion width = 0.44mm
; first layer extrusion width = 0.62mm

; external perimeters extrusion width = 0.44mm
; perimeters extrusion width = 0.46mm
; infill extrusion width = 0.44mm
; solid infill extrusion width = 0.46mm
; top infill extrusion width = 0.44mm
; first layer extrusion width = 0.62mm

; object:{"name":"Boitier_SHT31_Part1","id":"Boitier_SHT31_Part1.STL id:0 copy 0","object_center":[38.324985,16.119567,0.000000],"boundingbox_center":[38.324985,16.119567,4.753157],"boundingbox_size":[15.269865,17.274557,9.506314]}
; object:{"name":"Boitier_SHT31_Part1","id":"Boitier_SHT31_Part1.STL id:0 copy 1","object_center":[19.066556,16.811462,0.000000],"boundingbox_center":[19.066556,16.811462,4.753157],"boundingbox_size":[15.269865,17.274557,9.506314]}
; object:{"name":"Boitier_SHT31_Part1","id":"Boitier_SHT31_Part1.STL id:0 copy 2","object_center":[56.410213,15.989534,0.000000],"boundingbox_center":[56.410213,15.989534,4.753157],"boundingbox_size":[15.269865,17.274557,9.506314]}
; object:{"name":"Boitier_SHT31_Part1","id":"Boitier_SHT31_Part1.STL id:0 copy 3","object_center":[74.911116,15.886253,0.000000],"boundingbox_center":[74.911116,15.886253,4.753157],"boundingbox_size":[15.269865,17.274557,9.506314]}
; object:{"name":"Boitier_SHT31_Part2","id":"Boitier_SHT31_Part2.STL id:1 copy 0","object_center":[18.823137,37.041118,0.000000],"boundingbox_center":[18.823137,37.041118,1.500000],"boundingbox_size":[15.500000,13.000000,3.000000]}
; object:{"name":"Boitier_SHT31_Part2","id":"Boitier_SHT31_Part2.STL id:1 copy 1","object_center":[38.332180,36.797439,0.000000],"boundingbox_center":[38.332180,36.797439,1.500000],"boundingbox_size":[15.500000,13.000000,3.000000]}
; object:{"name":"Boitier_SHT31_Part2","id":"Boitier_SHT31_Part2.STL id:1 copy 2","object_center":[57.872770,37.496519,0.000000],"boundingbox_center":[57.872770,37.496519,1.500000],"boundingbox_size":[15.500000,13.000000,3.000000]}
; object:{"name":"Boitier_SHT31_Part2","id":"Boitier_SHT31_Part2.STL id:1 copy 3","object_center":[76.943792,37.541018,0.000000],"boundingbox_center":[76.943792,37.541018,1.500000],"boundingbox_size":[15.500000,13.000000,3.000000]}
; Total objects to print: 8
M486 T8
; plater:{"center":[47.883465,25.644996,0.000000],"boundingbox_center":[47.883465,25.644996,4.753157],"boundingbox_size":[73.620654,36.792044,9.506314]}

M140 S80 ; set bed temperature
G10 P0 R245 ; sets the standby temperature
G10 P0 S245 ; set temperature
;TYPE:Custom
;G28 ; home all axes
;G1 E30 F300 ;Extrude a bit
T0 ; choix de l'OmniaDrop V1.4
G29 S1 P"heightmap.csv";Load the height map from file and activate bed compensation
G1 X5 Y10 Z0.2 F3000 ; get ready to prime
G92 E0 ; reset extrusion distance
G1 X160 E15 F600 ; prime nozzle
G1 X180 F5000 ; quick wipe
M107
G21 ; set units to millimeters
G90 ; use absolute coordinates
M82 ; use absolute distances for extrusion
G92 E0
; Filament gcode
;_TOOLCHANGE 0
G10 P0 S245 ; set temperature
M116 ; wait for temperature to be reached
M190 S80 ; set bed temperature and wait for it to be reached
M107
;LAYER_CHANGE
;Z:0.3
;HEIGHT:0.3
G1 Z0.3 F7800
G1 E-1.2 F1800
; printing object Boitier_SHT31_Part1.STL id:0 copy 0
M486 S0
G1 X42.517 Y13.561 F7800
G1 E0 F1800
;TYPE:Internal perimeter
;WIDTH:0.624381
G1 X42.067 Y13.644 E0.02909
G1 X41.709 Y13.783 E0.05348
G1 X41.487 Y13.913 E0.06989
G1 X40.899 Y13.873 E0.10735
G1 X40.43 Y13.945 E0.13749
G1 X40.086 Y14.055 E0.16044
G1 X39.685 Y14.256 E0.18894
G1 X39.449 Y14.217 E0.20416
G1 X39.065 Y14.215 E0.22856
G1 X38.488 Y14.321 E0.26587
G1 X37.934 Y14.577 E0.30463
G1 X37.522 Y14.893 E0.33766
G1 X37.145 Y15.343 E0.37496
G1 X36.907 Y15.804 E0.40797
G1 X36.763 Y16.35 E0.44382
G1 X36.737 Y16.732 E0.4682
G1 X36.771 Y17.115 E0.49258
G1 X37.71 Y22.174 E0.81966
G1 X34.869 Y22.7 E1.00325
G1 X32.751 Y11.21 E1.74585
G1 X41.774 Y9.548 E2.32899
G1 X42.506 Y13.502 E2.58454
G1 X43.191 Y14.122 F7800
G1 F1800
G1 X42.663 Y14.103 E2.61808
G1 X42.221 Y14.185 E2.64666
G1 X41.954 Y14.289 E2.66488
G1 X41.563 Y14.517 E2.69366
G1 X41.37 Y14.467 E2.70631
G1 X40.922 Y14.436 E2.73488
G1 X40.558 Y14.492 E2.75828
G1 X40.298 Y14.575 E2.77563
G1 X39.982 Y14.734 E2.79815
G1 X39.833 Y14.848 E2.81007
G1 X39.401 Y14.777 E2.83788
G1 X39.114 Y14.775 E2.8561
G1 X38.659 Y14.859 E2.88555
G1 X38.226 Y15.059 E2.91588
G1 X37.912 Y15.3 E2.94104
G1 X37.614 Y15.655 E2.97047
G1 X37.433 Y16.007 E2.99562
G1 X37.318 Y16.441 E3.02417
G1 X37.299 Y16.727 E3.04238
G1 X37.326 Y17.039 E3.06228
G1 X38.271 Y22.129 E3.39136
G1 X38.44 Y22.608 E3.42367
G1 X34.42 Y23.353 E3.68353
G1 X32.099 Y10.761 E4.49734
G1 X42.223 Y8.896 E5.15165
G1 X43.18 Y14.063 E5.48567
G1 X43.912 Y15.034 F7800
;TYPE:Thin wall
;WIDTH:0.033455
G1 F1800
G1 X43.866 Y15.137
;WIDTH:0.301097
G1 X43.967 Y15.234 E5.48953
;WIDTH:0.574147
G1 X44.001 Y15.321 E5.49501
;WIDTH:0.532971
G1 X44.076 Y15.629 E5.51208
;WIDTH:0.494734
G1 X45.036 Y20.796 E5.77265
G1 X45.056 Y20.987 E5.78214
;WIDTH:0.542389
G1 X45.069 Y21.205 E5.79415
;WIDTH:0.584392
G1 X45.063 Y21.346 E5.80261
;WIDTH:0.66015
G1 X45.057 Y21.488 E5.81229
;WIDTH:0.701834
G1 X45.048 Y21.578 E5.81893
;WIDTH:0.763876
G1 X45.028 Y21.709 E5.8295
;WIDTH:0.833032
G1 X44.984 Y21.813 E5.83947
;WIDTH:0.802409
G1 X44.922 Y21.855 E5.84575
;WIDTH:0.757452
G1 X44.821 Y21.913 E5.85504
;WIDTH:0.670675
G1 X44.719 Y21.971 E5.86317
;WIDTH:0.593403
G1 X44.591 Y22.038 E5.87196
;WIDTH:0.56373
G1 X44.461 Y22.092 E5.88005
;WIDTH:0.458969
G1 X44.177 Y22.193 E5.89377
;WIDTH:0.407212
G1 X43.755 Y22.278 E5.91082
G1 X43.557 Y22.29 E5.91869
;WIDTH:0.493166
G1 X43.344 Y22.293 E5.92921
;WIDTH:0.543869
G1 X43.202 Y22.28 E5.93711
;WIDTH:0.636465
G1 X43.059 Y22.268 E5.94651
;WIDTH:0.689805
G1 X42.947 Y22.306 E5.955
;WIDTH:0.61087
G1 X42.786 Y22.383 E5.96619
;WIDTH:0.49763
G1 X42.494 Y22.495 E5.98183
;WIDTH:0.409988
G1 X42.301 Y22.553 E5.98985
G1 X41.8 Y22.623 E6.01009
;WIDTH:0.442338
G1 X41.692 Y22.624 E6.01478
;WIDTH:0.511654
G1 X41.516 Y22.62 E6.02384
;WIDTH:0.563869
G1 X41.385 Y22.606 E6.03142
;WIDTH:0.655918
G1 X41.254 Y22.591 E6.04038
G1 X41.142 Y22.654 E6.0491
;WIDTH:0.588046
G1 X40.99 Y22.725 E6.05921
;WIDTH:0.481928
G1 X40.75 Y22.818 E6.07157
;WIDTH:0.414816
G1 X40.374 Y22.916 E6.08732
G1 X39.919 Y22.952 E6.10583
;WIDTH:0.465237
G1 X39.816 Y22.949 E6.11059
;WIDTH:0.257079
G1 X39.671 Y22.926 E6.11389
;WIDTH:0.028564
G1 X39.816 Y22.949 E6.11426
;WIDTH:0.051693
G1 X39.919 Y22.952 E6.11479
;WIDTH:0.046091
G1 X40.374 Y22.916 E6.11684
G1 X40.75 Y22.818 E6.11859
;WIDTH:0.053548
G1 X40.99 Y22.725 E6.11997
;WIDTH:0.065338
G1 X41.142 Y22.654 E6.12109
;WIDTH:0.07288
G1 X41.254 Y22.591 E6.12206
G1 X41.385 Y22.606 E6.12306
;WIDTH:0.062652
G1 X41.516 Y22.62 E6.1239
;WIDTH:0.05685
G1 X41.692 Y22.624 E6.12491
;WIDTH:0.049149
G1 X41.8 Y22.623 E6.12543
;WIDTH:0.045554
G1 X42.301 Y22.553 E6.12767
G1 X42.494 Y22.495 E6.12857
;WIDTH:0.055292
G1 X42.786 Y22.383 E6.1303
;WIDTH:0.067874
G1 X42.947 Y22.306 E6.13155
;WIDTH:0.076645
G1 X43.059 Y22.268 E6.13249
;WIDTH:0.070718
G1 X43.202 Y22.28 E6.13354
;WIDTH:0.06043
G1 X43.344 Y22.293 E6.13441
;WIDTH:0.054796
G1 X43.557 Y22.29 E6.13558
;WIDTH:0.045246
G1 X43.755 Y22.278 E6.13646
G1 X44.177 Y22.193 E6.13835
;WIDTH:0.050997
G1 X44.461 Y22.092 E6.13987
;WIDTH:0.062637
G1 X44.591 Y22.038 E6.14077
;WIDTH:0.065934
G1 X44.719 Y21.971 E6.14175
;WIDTH:0.074519
G1 X44.821 Y21.913 E6.14265
;WIDTH:0.084161
G1 X44.922 Y21.855 E6.14369
;WIDTH:0.089157
G1 X44.984 Y21.813 E6.14438
;WIDTH:0.092559
G1 X45.028 Y21.709 E6.14549
;WIDTH:0.084875
G1 X45.048 Y21.578 E6.14667
;WIDTH:0.077982
G1 X45.057 Y21.488 E6.1474
;WIDTH:0.07335
G1 X45.063 Y21.346 E6.14848
;WIDTH:0.064932
G1 X45.069 Y21.205 E6.14942
;WIDTH:0.060265
G1 X45.056 Y20.987 E6.15075
;WIDTH:0.05497
G1 X45.036 Y20.796 E6.15181
G1 X44.076 Y15.629 E6.18076
;WIDTH:0.059219
G1 X44.001 Y15.321 E6.18266
;WIDTH:0.063794
G1 X43.967 Y15.234 E6.18327
;WIDTH:0.033455
G1 X43.866 Y15.137 E6.1837
;WIDTH:0.334552
G1 X43.912 Y15.034
;TYPE:External perimeter
;WIDTH:0.624381
G1 X43.568 Y14.883 E6.20755
G1 X43.557 Y14.897 E6.20869
G1 X43.227 Y14.733 E6.2321
G1 X42.972 Y14.675 E6.24878
G1 X42.704 Y14.665 E6.26577
G1 X42.375 Y14.726 E6.28705
G1 X42.198 Y14.795 E6.29911
G1 X41.972 Y14.927 E6.31579
G1 X41.708 Y15.179 E6.33895
G1 X41.463 Y15.07 E6.35599
G1 X41.279 Y15.022 E6.36805
G1 X40.946 Y14.999 E6.38931
G1 X40.686 Y15.039 E6.40598
G1 X40.51 Y15.095 E6.41772
G1 X40.281 Y15.21 E6.43407
G1 X40.073 Y15.37 E6.45073
G1 X39.943 Y15.516 E6.46315
G1 X39.612 Y15.379 E6.48588
G1 X39.353 Y15.336 E6.50255
G1 X39.164 Y15.335 E6.5146
G1 X38.83 Y15.397 E6.53618
G1 X38.517 Y15.541 E6.55807
G1 X38.301 Y15.707 E6.57537
G1 X38.083 Y15.967 E6.59694
G1 X37.958 Y16.209 E6.61423
G1 X37.873 Y16.532 E6.63548
G1 X37.86 Y16.721 E6.64752
G1 X37.882 Y16.963 E6.66293
G1 X38.813 Y21.984 E6.98753
G1 X38.901 Y22.23 E7.00415
G1 X39.083 Y22.521 E7.02599
G1 X39.336 Y22.762 E7.04814
G1 X39.393 Y22.793 E7.05228
G1 X39.384 Y22.808 E7.05334
G1 X39.556 Y22.971 E7.06844
G1 X33.971 Y24.006 E7.42947
G1 X31.46 Y10.38 E8.31007
G1 X31.684 Y10.268 E8.32601
G1 X42.672 Y8.244 E9.03617
G1 X42.714 Y8.469 E9.05073
G1 X43.923 Y15.004 E9.47311
;WIPE_START
G1 X43.53 Y15.155 F7800
;WIPE_END
G92 E0
G1 E-1.2 F1800
G1 X41.897 Y11.134 F7800
G1 E0 F1800
;TYPE:Solid infill
;WIDTH:0.612384
G1 F1200
G1 X40.89 Y10.127 E0.08881
G1 X40.221 Y10.25 E0.1312
G1 X41.776 Y11.806 E0.26833
G1 X41.956 Y12.777 E0.32995
G1 X39.552 Y10.373 E0.5419
G1 X38.883 Y10.496 E0.58429
G1 X41.735 Y13.348 E0.83566
G1 X41.41 Y13.498 E0.85799
G1 X41.07 Y13.475 E0.87919
G1 X38.215 Y10.62 E1.13095
G1 X37.546 Y10.743 E1.17334
G1 X40.347 Y13.544 E1.4203
G1 X39.783 Y13.772 E1.45821
G1 X36.877 Y10.866 E1.71442
G1 X36.208 Y10.989 E1.75681
G1 X39.025 Y13.806 E2.00516
G1 X38.358 Y13.931 E2.04749
G1 X35.54 Y11.112 E2.29594
G1 X34.871 Y11.236 E2.33834
G1 X37.816 Y14.181 E2.59802
G1 X37.722 Y14.225 E2.60453
G1 X37.352 Y14.508 E2.63358
G1 X34.202 Y11.359 E2.91125
G1 X33.533 Y11.482 E2.95364
G1 X36.969 Y14.917 E3.25649
G1 X36.803 Y15.115 E3.27259
G1 X36.657 Y15.397 E3.2924
G1 X33.325 Y12.065 E3.58617
G1 X33.504 Y13.036 E3.64771
G1 X36.457 Y15.99 E3.90811
G1 X36.335 Y16.659 E3.95054
G1 X33.683 Y14.007 E4.18437
G1 X33.862 Y14.978 E4.24591
G1 X36.475 Y17.592 E4.47635
G1 X36.648 Y18.556 E4.53742
G1 X34.041 Y15.949 E4.76727
G1 X34.22 Y16.92 E4.82881
G1 X36.82 Y19.521 E5.05808
G1 X36.992 Y20.485 E5.11914
G1 X34.399 Y17.891 E5.34782
G1 X34.578 Y18.862 E5.40937
G1 X37.165 Y21.449 E5.63746
G1 X37.236 Y21.846 E5.66261
G1 X36.843 Y21.919 E5.68753
G1 X34.756 Y19.833 E5.87145
G1 X34.935 Y20.804 E5.933
G1 X36.174 Y22.043 E6.04223
G1 X35.506 Y22.166 E6.08459
G1 X34.814 Y21.474 E6.1456
G92 E0
G1 E-1.2 F1800
; stop printing object Boitier_SHT31_Part1.STL id:0 copy 0
M486 S-1
; printing object Boitier_SHT31_Part1.STL id:0 copy 2
M486 S2
G1 X60.602 Y13.43 F7800
G1 E0 F1800
;TYPE:Internal perimeter
;WIDTH:0.624381
G1 X60.152 Y13.514 E0.02909
G1 X59.795 Y13.653 E0.05348
G1 X59.572 Y13.783 E0.06989
G1 X58.984 Y13.743 E0.10735
G1 X58.515 Y13.815 E0.13749
G1 X58.171 Y13.925 E0.16044
G1 X57.77 Y14.126 E0.18894
G1 X57.534 Y14.087 E0.20416
G1 X57.15 Y14.085 E0.22856
G1 X56.573 Y14.191 E0.26587
G1 X56.02 Y14.447 E0.30463
G1 X55.607 Y14.763 E0.33766
G1 X55.23 Y15.213 E0.37496
G1 X54.992 Y15.674 E0.40797
G1 X54.849 Y16.22 E0.44382
G1 X54.822 Y16.602 E0.4682
G1 X54.856 Y16.985 E0.49258
G1 X55.795 Y22.044 E0.81966
G1 X52.955 Y22.57 E1.00325
G1 X50.837 Y11.08 E1.74585
G1 X59.86 Y9.418 E2.32899
G1 X60.591 Y13.371 E2.58454
G1 X61.276 Y13.992 F7800
G1 F1800
G1 X60.748 Y13.973 E2.61808
G1 X60.306 Y14.055 E2.64666
G1 X60.039 Y14.159 E2.66488
G1 X59.648 Y14.387 E2.69366
G1 X59.456 Y14.337 E2.70631
G1 X59.007 Y14.306 E2.73488
G1 X58.643 Y14.362 E2.75828
G1 X58.383 Y14.445 E2.77563
G1 X58.067 Y14.604 E2.79815
G1 X57.918 Y14.718 E2.81007
G1 X57.486 Y14.647 E2.83788
G1 X57.2 Y14.645 E2.8561
G1 X56.744 Y14.729 E2.88555
G1 X56.311 Y14.929 E2.91588
G1 X55.997 Y15.17 E2.94104
G1 X55.699 Y15.525 E2.97047
G1 X55.518 Y15.877 E2.99562
G1 X55.404 Y16.311 E3.02417
G1 X55.384 Y16.597 E3.04238
G1 X55.412 Y16.908 E3.06228
G1 X56.356 Y21.999 E3.39136
G1 X56.526 Y22.478 E3.42367
G1 X52.505 Y23.223 E3.68353
G1 X50.184 Y10.631 E4.49734
G1 X60.308 Y8.766 E5.15165
G1 X61.265 Y13.933 E5.48567
G1 X61.997 Y14.904 F7800
;TYPE:Thin wall
;WIDTH:0.033455
G1 F1800
G1 X61.952 Y15.007
;WIDTH:0.301097
G1 X62.052 Y15.104 E5.48953
;WIDTH:0.574147
G1 X62.086 Y15.191 E5.49501
;WIDTH:0.532971
G1 X62.161 Y15.499 E5.51208
;WIDTH:0.494734
G1 X63.122 Y20.666 E5.77265
G1 X63.141 Y20.857 E5.78214
;WIDTH:0.542389
G1 X63.154 Y21.075 E5.79415
;WIDTH:0.584392
G1 X63.149 Y21.216 E5.80261
;WIDTH:0.66015
G1 X63.143 Y21.358 E5.81229
;WIDTH:0.701834
G1 X63.134 Y21.448 E5.81893
;WIDTH:0.763876
G1 X63.113 Y21.579 E5.8295
;WIDTH:0.833032
G1 X63.069 Y21.683 E5.83947
;WIDTH:0.802409
G1 X63.008 Y21.725 E5.84575
;WIDTH:0.757452
G1 X62.906 Y21.783 E5.85504
;WIDTH:0.670675
G1 X62.805 Y21.841 E5.86317
;WIDTH:0.593403
G1 X62.676 Y21.908 E5.87196
;WIDTH:0.56373
G1 X62.546 Y21.962 E5.88005
;WIDTH:0.458969
G1 X62.262 Y22.063 E5.89377
;WIDTH:0.407212
G1 X61.841 Y22.148 E5.91082
G1 X61.642 Y22.16 E5.91869
;WIDTH:0.493166
G1 X61.43 Y22.163 E5.92921
;WIDTH:0.543869
G1 X61.287 Y22.15 E5.93711
;WIDTH:0.636465
G1 X61.144 Y22.138 E5.94651
;WIDTH:0.689805
G1 X61.032 Y22.176 E5.955
;WIDTH:0.61087
G1 X60.871 Y22.253 E5.96619
;WIDTH:0.49763
G1 X60.579 Y22.365 E5.98183
;WIDTH:0.409988
G1 X60.387 Y22.423 E5.98985
G1 X59.885 Y22.493 E6.01009
;WIDTH:0.442338
G1 X59.778 Y22.494 E6.01478
;WIDTH:0.511654
G1 X59.602 Y22.49 E6.02384
;WIDTH:0.563869
G1 X59.47 Y22.476 E6.03142
;WIDTH:0.655918
G1 X59.339 Y22.461 E6.04038
G1 X59.227 Y22.524 E6.0491
;WIDTH:0.588046
G1 X59.075 Y22.595 E6.05921
;WIDTH:0.481928
G1 X58.836 Y22.688 E6.07157
;WIDTH:0.414816
G1 X58.459 Y22.786 E6.08732
G1 X58.004 Y22.822 E6.10583
;WIDTH:0.465237
G1 X57.901 Y22.819 E6.11059
;WIDTH:0.257079
G1 X57.757 Y22.796 E6.11389
;WIDTH:0.028564
G1 X57.901 Y22.819 E6.11426
;WIDTH:0.051693
G1 X58.004 Y22.822 E6.11479
;WIDTH:0.046091
G1 X58.459 Y22.786 E6.11684
G1 X58.836 Y22.688 E6.11859
;WIDTH:0.053548
G1 X59.075 Y22.595 E6.11997
;WIDTH:0.065338
G1 X59.227 Y22.524 E6.12109
;WIDTH:0.07288
G1 X59.339 Y22.461 E6.12206
G1 X59.47 Y22.476 E6.12306
;WIDTH:0.062652
G1 X59.602 Y22.49 E6.1239
;WIDTH:0.05685
G1 X59.778 Y22.494 E6.12491
;WIDTH:0.049149
G1 X59.885 Y22.493 E6.12543
;WIDTH:0.045554
G1 X60.387 Y22.423 E6.12767
G1 X60.579 Y22.365 E6.12857
;WIDTH:0.055292
G1 X60.871 Y22.253 E6.1303
;WIDTH:0.067874
G1 X61.032 Y22.176 E6.13155
;WIDTH:0.076645
G1 X61.144 Y22.138 E6.13249
;WIDTH:0.070718
G1 X61.287 Y22.15 E6.13354
;WIDTH:0.06043
G1 X61.43 Y22.163 E6.13441
;WIDTH:0.054796
G1 X61.642 Y22.16 E6.13558
;WIDTH:0.045246
G1 X61.841 Y22.148 E6.13646
G1 X62.262 Y22.063 E6.13835
;WIDTH:0.050997
G1 X62.546 Y21.962 E6.13987
;WIDTH:0.062637
G1 X62.676 Y21.908 E6.14077
;WIDTH:0.065934
G1 X62.805 Y21.841 E6.14175
;WIDTH:0.074519
G1 X62.906 Y21.783 E6.14265
;WIDTH:0.084161
G1 X63.008 Y21.725 E6.14369
;WIDTH:0.089157
G1 X63.069 Y21.683 E6.14438
;WIDTH:0.092559
G1 X63.113 Y21.579 E6.14549
;WIDTH:0.084875
G1 X63.134 Y21.448 E6.14667
;WIDTH:0.077982
G1 X63.143 Y21.358 E6.1474
;WIDTH:0.07335
G1 X63.149 Y21.216 E6.14848
;WIDTH:0.064932
G1 X63.154 Y21.075 E6.14942
;WIDTH:0.060265
G1 X63.141 Y20.857 E6.15075
;WIDTH:0.05497
G1 X63.122 Y20.666 E6.15181
G1 X62.161 Y15.499 E6.18076
;WIDTH:0.059219
G1 X62.086 Y15.191 E6.18266
;WIDTH:0.063794
G1 X62.052 Y15.104 E6.18327
;WIDTH:0.033455
G1 X61.952 Y15.007 E6.1837
;WIDTH:0.334552
G1 X61.997 Y14.904
;TYPE:External perimeter
;WIDTH:0.624381
G1 X61.653 Y14.753 E6.20755
G1 X61.642 Y14.767 E6.20869
G1 X61.313 Y14.603 E6.2321
G1 X61.057 Y14.545 E6.24878
G1 X60.79 Y14.535 E6.26577
G1 X60.46 Y14.596 E6.28705
G1 X60.284 Y14.665 E6.29911
G1 X60.057 Y14.797 E6.31579
G1 X59.793 Y15.048 E6.33895
G1 X59.548 Y14.94 E6.35599
