; generated by SuperSlicer 2.5.59 on 2023-06-07 at 19:39:14 UTC

; 

; external perimeters extrusion width = 0.44mm
; perimeters extrusion width = 0.46mm
; infill extrusion width = 0.44mm
; solid infill extrusion width = 0.46mm
; top infill extrusion width = 0.44mm
; first layer extrusion width = 0.62mm

; external perimeters extrusion width = 0.44mm
; perimeters extrusion width = 0.46mm
; infill extrusion width = 0.44mm
; solid infill extrusion width = 0.46mm
; top infill extrusion width = 0.44mm
; first layer extrusion width = 0.62mm

; object:{"name":"Boitier_M5Core2_LoRa(16,5mm)","id":"Boitier_M5Core2_LoRa(16,5mm).STL id:0 copy 0","object_center":[39.199837,48.908083,0.000000],"boundingbox_center":[39.199837,48.908083,9.250000],"boundingbox_size":[54.000000,54.000000,18.500000]}
; object:{"name":"Boitier_M5Core2_LoRa(17,5mm)","id":"Boitier_M5Core2_LoRa(17,5mm).STL id:1 copy 0","object_center":[98.569708,49.784236,0.000000],"boundingbox_center":[98.569708,49.784236,9.750000],"boundingbox_size":[54.000000,54.000000,19.500000]}
; Total objects to print: 2
M486 T2
; plater:{"center":[68.884773,49.346159,0.000000],"boundingbox_center":[68.884773,49.346159,9.750000],"boundingbox_size":[113.369870,54.876153,19.500000]}

M140 S80 ; set bed temperature
G10 P0 R245 ; sets the standby temperature
G10 P0 S245 ; set temperature
;TYPE:Custom
;G28 ; home all axes
;G1 E30 F300 ;Extrude a bit
T0 ; choix de l'OmniaDrop V1.4
G29 S1 P"heightmap.csv";Load the height map from file and activate bed compensation
G1 X5 Y10 Z0.2 F3000 ; get ready to prime
G92 E0 ; reset extrusion distance
G1 X160 E15 F600 ; prime nozzle
G1 X180 F5000 ; quick wipe
M107
G21 ; set units to millimeters
G90 ; use absolute coordinates
M82 ; use absolute distances for extrusion
G92 E0
; Filament gcode
;_TOOLCHANGE 0
G10 P0 S245 ; set temperature
M116 ; wait for temperature to be reached
M190 S80 ; set bed temperature and wait for it to be reached
M107
;LAYER_CHANGE
;Z:0.3
;HEIGHT:0.3
G1 Z0.3 F7800
G1 E-1.2 F1800
; printing object Boitier_M5Core2_LoRa(16,5mm).STL id:0 copy 0
M486 S0
G1 X23.512 Y22.346 F7800
G1 E0 F1800
;TYPE:External perimeter
;WIDTH:0.624381
G1 X17.192 Y22.346 E0.40169
G1 X16.753 Y22.367 E0.42966
G1 X16.31 Y22.433 E0.45812
G1 X15.875 Y22.542 E0.48658
G1 X15.454 Y22.693 E0.51504
G1 X15.049 Y22.884 E0.5435
G1 X14.665 Y23.114 E0.57196
G1 X14.305 Y23.381 E0.60042
G1 X13.974 Y23.682 E0.62887
G1 X13.673 Y24.014 E0.65733
G1 X13.406 Y24.373 E0.68579
G1 X13.176 Y24.757 E0.71425
G1 X12.985 Y25.162 E0.74271
G1 X12.834 Y25.584 E0.77117
G1 X12.725 Y26.018 E0.79963
G1 X12.659 Y26.461 E0.82809
G1 X12.638 Y26.9 E0.85606
G1 X12.638 Y30.22 E1.06707
G1 X13.688 Y30.22 E1.13381
G1 X13.688 Y67.596 E3.50941
G1 X12.638 Y67.596 E3.57614
G1 X12.638 Y70.916 E3.78715
G1 X12.659 Y71.355 E3.81513
G1 X12.725 Y71.798 E3.84358
G1 X12.834 Y72.233 E3.87204
G1 X12.985 Y72.654 E3.9005
G1 X13.176 Y73.059 E3.92896
G1 X13.406 Y73.443 E3.95742
G1 X13.673 Y73.803 E3.98588
G1 X13.974 Y74.134 E4.01434
G1 X14.305 Y74.435 E4.0428
G1 X14.665 Y74.702 E4.07126
G1 X15.049 Y74.932 E4.09972
G1 X15.454 Y75.123 E4.12817
G1 X15.875 Y75.274 E4.15663
G1 X16.31 Y75.383 E4.18509
G1 X16.753 Y75.449 E4.21355
G1 X17.192 Y75.47 E4.24152
G1 X23.512 Y75.47 E4.64321
G1 X23.512 Y74.42 E4.70995
G1 X54.888 Y74.42 E6.70419
G1 X54.888 Y75.47 E6.77093
G1 X61.208 Y75.47 E7.17262
G1 X61.647 Y75.449 E7.20059
G1 X62.09 Y75.383 E7.22905
G1 X62.524 Y75.274 E7.25751
G1 X62.946 Y75.123 E7.28597
G1 X63.351 Y74.932 E7.31443
G1 X63.735 Y74.702 E7.34288
G1 X64.094 Y74.435 E7.37134
G1 X64.426 Y74.134 E7.3998
G1 X64.727 Y73.803 E7.42826
G1 X64.993 Y73.443 E7.45672
G1 X65.224 Y73.059 E7.48518
G1 X65.415 Y72.654 E7.51364
G1 X65.566 Y72.233 E7.5421
G1 X65.675 Y71.798 E7.57056
G1 X65.74 Y71.355 E7.59902
G1 X65.762 Y70.916 E7.62699
G1 X65.762 Y67.596 E7.838
G1 X64.712 Y67.596 E7.90474
G1 X64.712 Y30.22 E10.28033
G1 X65.762 Y30.22 E10.34707
G1 X65.762 Y26.9 E10.55808
G1 X65.74 Y26.461 E10.58605
G1 X65.675 Y26.018 E10.61451
G1 X65.566 Y25.584 E10.64297
G1 X65.415 Y25.162 E10.67143
G1 X65.224 Y24.757 E10.69989
G1 X64.993 Y24.373 E10.72835
G1 X64.727 Y24.014 E10.75681
G1 X64.426 Y23.682 E10.78527
G1 X64.094 Y23.381 E10.81373
G1 X63.735 Y23.114 E10.84218
G1 X63.351 Y22.884 E10.87064
G1 X62.946 Y22.693 E10.8991
G1 X62.524 Y22.542 E10.92756
G1 X62.09 Y22.433 E10.95602
G1 X61.647 Y22.367 E10.98448
G1 X61.208 Y22.346 E11.01245
G1 X54.888 Y22.346 E11.41414
G1 X54.888 Y23.396 E11.48088
G1 X23.512 Y23.396 E13.47512
G1 X23.512 Y22.406 E13.53804
;WIPE_START
G1 X23.512 Y21.946 F7800
;WIPE_END
G92 E0
G1 E-1.2 F1800
G1 X16.767 Y22.241 F7800
G1 E0 F1800
G1 X17.207 Y22.22 E0.02798
G1 X61.193 Y22.22 E2.82371
G1 X61.632 Y22.241 E2.85169
G1 X62.061 Y22.3 E2.8792
G1 X62.483 Y22.4 E2.90673
G1 X62.893 Y22.537 E2.93424
G1 X63.289 Y22.712 E2.96176
G1 X63.667 Y22.923 E2.98928
G1 X64.025 Y23.167 E3.0168
G1 X64.358 Y23.444 E3.04432
G1 X64.664 Y23.75 E3.07184
G1 X64.941 Y24.083 E3.09936
G1 X65.185 Y24.44 E3.12688
G1 X65.396 Y24.819 E3.1544
G1 X65.571 Y25.215 E3.18192
G1 X65.708 Y25.625 E3.20944
G1 X65.807 Y26.047 E3.23696
G1 X65.867 Y26.476 E3.26448
G1 X65.888 Y26.915 E3.29246
G1 X65.888 Y70.901 E6.08818
G1 X65.867 Y71.341 E6.11616
G1 X65.807 Y71.769 E6.14368
G1 X65.708 Y72.191 E6.1712
G1 X65.571 Y72.601 E6.19872
G1 X65.396 Y72.997 E6.22624
G1 X65.185 Y73.376 E6.25376
G1 X64.941 Y73.733 E6.28128
G1 X64.664 Y74.066 E6.3088
G1 X64.358 Y74.372 E6.33632
G1 X64.025 Y74.649 E6.36384
G1 X63.667 Y74.893 E6.39136
G1 X63.289 Y75.104 E6.41888
G1 X62.893 Y75.279 E6.4464
G1 X62.483 Y75.417 E6.47392
G1 X62.061 Y75.516 E6.50144
G1 X61.632 Y75.576 E6.52895
G1 X61.193 Y75.596 E6.55693
G1 X17.207 Y75.596 E9.35266
G1 X16.767 Y75.576 E9.38064
G1 X16.339 Y75.516 E9.40816
G1 X15.917 Y75.417 E9.43568
G1 X15.507 Y75.279 E9.4632
G1 X15.11 Y75.104 E9.49072
G1 X14.732 Y74.893 E9.51824
G1 X14.375 Y74.649 E9.54576
G1 X14.042 Y74.372 E9.57328
G1 X13.736 Y74.066 E9.6008
G1 X13.459 Y73.733 E9.62832
G1 X13.214 Y73.376 E9.65583
G1 X13.004 Y72.997 E9.68335
G1 X12.829 Y72.601 E9.71087
G1 X12.691 Y72.191 E9.73839
G1 X12.592 Y71.769 E9.76591
G1 X12.532 Y71.341 E9.79343
G1 X12.512 Y70.901 E9.82141
G1 X12.512 Y26.915 E12.61714
G1 X12.532 Y26.476 E12.64512
G1 X12.592 Y26.047 E12.67264
G1 X12.691 Y25.625 E12.70016
G1 X12.829 Y25.215 E12.72768
G1 X13.004 Y24.819 E12.7552
G1 X13.214 Y24.44 E12.78272
G1 X13.459 Y24.083 E12.81023
G1 X13.736 Y23.75 E12.83775
G1 X14.042 Y23.444 E12.86527
G1 X14.375 Y23.167 E12.89279
G1 X14.732 Y22.923 E12.92031
G1 X15.11 Y22.712 E12.94783
G1 X15.507 Y22.537 E12.97535
G1 X15.917 Y22.4 E13.00287
G1 X16.339 Y22.3 E13.03039
G1 X16.708 Y22.249 E13.0541
;WIPE_START
G1 X16.993 Y22.571 F7800
;WIPE_END
G92 E0
G1 E-1.2 F1800
G1 X23.77 Y22.808 F7800
G1 E0 F1800
;TYPE:Gap fill
;WIDTH:0.724957
G1 F1200
G1 X54.63 Y22.808 E2.31379
G92 E0
G1 E-1.2 F1800
G1 X65.3 Y30.478 F7800
G1 E0 F1800
;WIDTH:0.724955
G1 F1200
G1 X65.3 Y67.338 E2.76363
G92 E0
G1 E-1.2 F1800
G1 X54.63 Y75.008 F7800
G1 E0 F1800
G1 F1200
G1 X23.77 Y75.008 E2.31378
G92 E0
G1 E-1.2 F1800
G1 X13.1 Y67.338 F7800
G1 E0 F1800
;WIDTH:0.724957
G1 F1200
G1 X13.1 Y30.478 E2.76364
G92 E0
G1 E-1.2 F1800
; stop printing object Boitier_M5Core2_LoRa(16,5mm).STL id:0 copy 0
M486 S-1
; printing object Boitier_M5Core2_LoRa(17,5mm).STL id:1 copy 0
M486 S1
G1 X72.008 Y31.096 F7800
G1 E0 F1800
;TYPE:External perimeter
;WIDTH:0.624381
G1 X73.058 Y31.096 E0.06674
G1 X73.058 Y68.472 E2.44234
G1 X72.008 Y68.472 E2.50908
G1 X72.008 Y71.792 E2.72009
G1 X72.029 Y72.231 E2.74806
G1 X72.095 Y72.674 E2.77652
G1 X72.204 Y73.109 E2.80497
G1 X72.354 Y73.53 E2.83343
G1 X72.546 Y73.935 E2.86189
G1 X72.776 Y74.319 E2.89035
G1 X73.043 Y74.679 E2.91881
G1 X73.343 Y75.01 E2.94727
G1 X73.675 Y75.311 E2.97573
G1 X74.035 Y75.578 E3.00419
G1 X74.419 Y75.808 E3.03265
G1 X74.824 Y75.999 E3.06111
G1 X75.245 Y76.15 E3.08956
G1 X75.68 Y76.259 E3.11802
G1 X76.123 Y76.325 E3.14648
G1 X76.562 Y76.346 E3.17445
G1 X82.882 Y76.346 E3.57614
G1 X82.882 Y75.296 E3.64288
G1 X114.258 Y75.296 E5.63712
G1 X114.258 Y76.346 E5.70386
G1 X120.577 Y76.346 E6.10555
G1 X121.017 Y76.325 E6.13352
G1 X121.46 Y76.259 E6.16198
G1 X121.894 Y76.15 E6.19044
G1 X122.316 Y75.999 E6.2189
G1 X122.72 Y75.808 E6.24736
G1 X123.105 Y75.578 E6.27582
G1 X123.464 Y75.311 E6.30427
G1 X123.796 Y75.01 E6.33273
G1 X124.097 Y74.679 E6.36119
G1 X124.363 Y74.319 E6.38965
G1 X124.594 Y73.935 E6.41811
G1 X124.785 Y73.53 E6.44657
G1 X124.936 Y73.109 E6.47503
G1 X125.045 Y72.674 E6.50349
G1 X125.11 Y72.231 E6.53195
G1 X125.132 Y71.792 E6.55992
G1 X125.132 Y68.472 E6.77093
G1 X124.082 Y68.472 E6.83767
G1 X124.082 Y31.096 E9.21326
G1 X125.132 Y31.096 E9.28
G1 X125.132 Y27.777 E9.49101
G1 X125.11 Y27.337 E9.51898
G1 X125.045 Y26.894 E9.54744
G1 X124.936 Y26.46 E9.5759
G1 X124.785 Y26.038 E9.60436
G1 X124.594 Y25.633 E9.63282
G1 X124.363 Y25.249 E9.66128
G1 X124.097 Y24.89 E9.68974
G1 X123.796 Y24.558 E9.7182
G1 X123.464 Y24.257 E9.74666
G1 X123.105 Y23.991 E9.77511
G1 X122.72 Y23.76 E9.80357
G1 X122.316 Y23.569 E9.83203
G1 X121.894 Y23.418 E9.86049
G1 X121.46 Y23.309 E9.88895
G1 X121.017 Y23.244 E9.91741
G1 X120.577 Y23.222 E9.94538
G1 X114.258 Y23.222 E10.34707
G1 X114.258 Y24.272 E10.41381
G1 X82.882 Y24.272 E12.40805
G1 X82.882 Y23.222 E12.47479
G1 X76.562 Y23.222 E12.87648
G1 X76.123 Y23.244 E12.90445
G1 X75.68 Y23.309 E12.93291
G1 X75.245 Y23.418 E12.96137
G1 X74.824 Y23.569 E12.98983
G1 X74.419 Y23.76 E13.01828
G1 X74.035 Y23.991 E13.04674
G1 X73.675 Y24.257 E13.0752
G1 X73.343 Y24.558 E13.10366
G1 X73.043 Y24.89 E13.13212
G1 X72.776 Y25.249 E13.16058
G1 X72.546 Y25.633 E13.18904
G1 X72.354 Y26.038 E13.2175
G1 X72.204 Y26.46 E13.24596
G1 X72.095 Y26.894 E13.27442
G1 X72.029 Y27.337 E13.30287
G1 X72.008 Y27.777 E13.33085
G1 X72.008 Y31.036 E13.53804
;WIPE_START
G1 X72.008 Y31.496 F7800
;WIPE_END
G92 E0
G1 E-1.2 F1800
G1 X71.902 Y27.352 F7800
G1 E0 F1800
G1 X71.962 Y26.923 E0.02752
G1 X72.061 Y26.501 E0.05504
G1 X72.199 Y26.091 E0.08256
G1 X72.374 Y25.695 E0.11008
G1 X72.584 Y25.317 E0.1376
G1 X72.829 Y24.959 E0.16512
G1 X73.106 Y24.626 E0.19264
G1 X73.412 Y24.32 E0.22016
G1 X73.745 Y24.044 E0.24768
G1 X74.102 Y23.799 E0.27519
G1 X74.48 Y23.588 E0.30271
G1 X74.876 Y23.413 E0.33023
G1 X75.287 Y23.276 E0.35775
G1 X75.708 Y23.177 E0.38527
G1 X76.137 Y23.117 E0.41279
G1 X76.577 Y23.096 E0.44077
G1 X120.562 Y23.096 E3.2365
G1 X121.002 Y23.117 E3.26448
G1 X121.431 Y23.177 E3.292
G1 X121.853 Y23.276 E3.31952
G1 X122.263 Y23.413 E3.34703
G1 X122.659 Y23.588 E3.37455
G1 X123.037 Y23.799 E3.40207
G1 X123.395 Y24.044 E3.42959
G1 X123.728 Y24.32 E3.45711
G1 X124.034 Y24.626 E3.48463
G1 X124.31 Y24.959 E3.51215
G1 X124.555 Y25.317 E3.53967
G1 X124.766 Y25.695 E3.56719
G1 X124.941 Y26.091 E3.59471
G1 X125.078 Y26.501 E3.62223
G1 X125.177 Y26.923 E3.64975
G1 X125.237 Y27.352 E3.67727
G1 X125.258 Y27.791 E3.70525
G1 X125.258 Y71.777 E6.50098
G1 X125.237 Y72.217 E6.52895
G1 X125.177 Y72.646 E6.55647
G1 X125.078 Y73.067 E6.58399
G1 X124.941 Y73.478 E6.61151
G1 X124.766 Y73.874 E6.63903
G1 X124.555 Y74.252 E6.66655
G1 X124.31 Y74.609 E6.69407
G1 X124.034 Y74.942 E6.72159
G1 X123.728 Y75.248 E6.74911
G1 X123.395 Y75.525 E6.77663
G1 X123.037 Y75.77 E6.80415
G1 X122.659 Y75.98 E6.83167
G1 X122.263 Y76.155 E6.85919
G1 X121.853 Y76.293 E6.88671
G1 X121.431 Y76.392 E6.91423
G1 X121.002 Y76.452 E6.94175
G1 X120.562 Y76.472 E6.96973
G1 X76.577 Y76.472 E9.76545
G1 X76.137 Y76.452 E9.79343
G1 X75.708 Y76.392 E9.82095
G1 X75.287 Y76.293 E9.84847
G1 X74.876 Y76.155 E9.87599
G1 X74.48 Y75.98 E9.90351
G1 X74.102 Y75.77 E9.93103
G1 X73.745 Y75.525 E9.95855
G1 X73.412 Y75.248 E9.98607
G1 X73.106 Y74.942 E10.01359
G1 X72.829 Y74.609 E10.04111
G1 X72.584 Y74.252 E10.06863
G1 X72.374 Y73.874 E10.09615
G1 X72.199 Y73.478 E10.12367
G1 X72.061 Y73.067 E10.15118
G1 X71.962 Y72.646 E10.1787
G1 X71.902 Y72.217 E10.20622
G1 X71.882 Y71.777 E10.2342
G1 X71.882 Y27.791 E13.02993
G1 X71.899 Y27.412 E13.0541
;WIPE_START
G1 X72.268 Y27.19 F7800
;WIPE_END
G92 E0
G1 E-1.2 F1800
G1 X72.47 Y31.354 F7800
G1 E0 F1800
;TYPE:Gap fill
;WIDTH:0.724957
G1 F1200
G1 X72.47 Y68.215 E2.76364
G92 E0
G1 E-1.2 F1800
G1 X83.139 Y75.884 F7800
G1 E0 F1800
;WIDTH:0.724955
G1 F1200
G1 X114 Y75.884 E2.31378
G92 E0
G1 E-1.2 F1800
G1 X124.67 Y68.215 F7800
G1 E0 F1800
G1 F1200
G1 X124.67 Y31.354 E2.76363
G92 E0
G1 E-1.2 F1800
G1 X114 Y23.684 F7800
G1 E0 F1800
;WIDTH:0.724957
G1 F1200
G1 X83.139 Y23.684 E2.31379
M106 S12.75
;LAYER_CHANGE
;Z:0.5
;HEIGHT:0.2
; stop printing object Boitier_M5Core2_LoRa(17,5mm).STL id:1 copy 0
M486 S-1
G1 Z0.5 F7800
G92 E0
G1 E-1.2 F1800
; printing object Boitier_M5Core2_LoRa(16,5mm).STL id:0 copy 0
M486 S0
G1 X54.568 Y23.077 F7800
G1 E0 F1800
;TYPE:Internal perimeter
;WIDTH:0.46292
G1 F3600
G1 X23.831 Y23.077 E0.97683
G1 X23.831 Y22.54 E0.99389
G1 X54.568 Y22.54 E1.97072
G1 X54.568 Y23.017 E1.98588
G92 E0
G1 E-1.2 F1800
G1 X12.831 Y30.54 F7800
G1 E0 F1800
G1 F3600
G1 X13.368 Y30.54 E0.01707
G1 X13.368 Y67.277 E1.18458
G1 X12.831 Y67.277 E1.20164
G1 X12.831 Y30.6 E2.36724
G92 E0
G1 E-1.2 F1800
G1 X23.831 Y75.277 F7800
G1 E0 F1800
G1 F3600
G1 X23.831 Y74.74 E0.01707
G1 X54.568 Y74.74 E0.99389
G1 X54.568 Y75.277 E1.01096
G1 X23.891 Y75.277 E1.98588
G92 E0
G1 E-1.2 F1800
G1 X65.568 Y67.277 F7800
G1 E0 F1800
G1 F3600
G1 X65.031 Y67.277 E0.01707
G1 X65.031 Y30.54 E1.18458
G1 X65.568 Y30.54 E1.20164
G1 X65.568 Y67.217 E2.36724
G1 X65.671 Y67.687 F7800
;TYPE:External perimeter
;WIDTH:0.44292
G1 F1800
G1 X64.621 Y67.687 E2.39902
G1 X64.621 Y30.13 E3.53575
G1 X65.671 Y30.13 E3.56753
G1 X65.671 Y26.903 E3.6652
G1 X65.65 Y26.47 E3.67832
G1 X65.586 Y26.036 E3.6916
G1 X65.479 Y25.61 E3.70488
G1 X65.331 Y25.197 E3.71816
G1 X65.144 Y24.8 E3.73145
G1 X64.918 Y24.424 E3.74473
G1 X64.657 Y24.071 E3.75801
G1 X64.362 Y23.746 E3.77129
G1 X64.037 Y23.451 E3.78457
G1 X63.684 Y23.19 E3.79786
G1 X63.308 Y22.964 E3.81114
G1 X62.911 Y22.777 E3.82442
G1 X62.498 Y22.629 E3.8377
G1 X62.072 Y22.522 E3.85099
G1 X61.638 Y22.458 E3.86427
G1 X61.205 Y22.437 E3.87738
G1 X54.978 Y22.437 E4.06585
G1 X54.978 Y23.487 E4.09763
G1 X23.421 Y23.487 E5.05276
G1 X23.421 Y22.437 E5.08454
G1 X17.194 Y22.437 E5.27301
G1 X16.762 Y22.458 E5.28613
G1 X16.327 Y22.522 E5.29941
G1 X15.902 Y22.629 E5.31269
G1 X15.489 Y22.777 E5.32597
G1 X15.092 Y22.964 E5.33926
G1 X14.715 Y23.19 E5.35254
G1 X14.363 Y23.451 E5.36582
G1 X14.038 Y23.746 E5.3791
G1 X13.743 Y24.071 E5.39238
G1 X13.482 Y24.424 E5.40567
G1 X13.256 Y24.8 E5.41895
G1 X13.069 Y25.197 E5.43223
G1 X12.921 Y25.61 E5.44551
G1 X12.814 Y26.036 E5.45879
G1 X12.75 Y26.47 E5.47208
G1 X12.728 Y26.903 E5.48519
G1 X12.728 Y30.13 E5.58286
G1 X13.778 Y30.13 E5.61464
G1 X13.778 Y67.687 E6.75137
G1 X12.728 Y67.687 E6.78315
G1 X12.728 Y70.914 E6.88082
G1 X12.75 Y71.346 E6.89394
G1 X12.814 Y71.78 E6.90722
G1 X12.921 Y72.206 E6.9205
G1 X13.069 Y72.619 E6.93378
G1 X13.256 Y73.016 E6.94706
G1 X13.482 Y73.392 E6.96035
G1 X13.743 Y73.745 E6.97363
G1 X14.038 Y74.07 E6.98691
G1 X14.363 Y74.365 E7.00019
G1 X14.715 Y74.626 E7.01347
G1 X15.092 Y74.852 E7.02676
G1 X15.489 Y75.039 E7.04004
G1 X15.902 Y75.187 E7.05332
G1 X16.327 Y75.294 E7.0666
G1 X16.762 Y75.358 E7.07989
G1 X17.194 Y75.38 E7.093
G1 X23.421 Y75.38 E7.28147
G1 X23.421 Y74.33 E7.31325
G1 X54.978 Y74.33 E8.26838
G1 X54.978 Y75.38 E8.30016
G1 X61.205 Y75.38 E8.48863
G1 X61.638 Y75.358 E8.50174
G1 X62.072 Y75.294 E8.51503
G1 X62.498 Y75.187 E8.52831
G1 X62.911 Y75.039 E8.54159
G1 X63.308 Y74.852 E8.55487
G1 X63.684 Y74.626 E8.56816
G1 X64.037 Y74.365 E8.58144
G1 X64.362 Y74.07 E8.59472
G1 X64.657 Y73.745 E8.608
G1 X64.918 Y73.392 E8.62128
G1 X65.144 Y73.016 E8.63457
G1 X65.331 Y72.619 E8.64785
G1 X65.479 Y72.206 E8.66113
G1 X65.586 Y71.78 E8.67441
G1 X65.65 Y71.346 E8.68769
G1 X65.671 Y70.914 E8.70081
G1 X65.671 Y67.747 E8.79666
;WIPE_START
G1 X65.671 Y67.287 F7800
;WIPE_END
G1 X65.958 Y71.349
G1 F1800
G1 X65.897 Y71.786 E8.81002
G1 X65.796 Y72.216 E8.82338
G1 X65.655 Y72.634 E8.83674
G1 X65.477 Y73.038 E8.8501
G1 X65.262 Y73.424 E8.86345
G1 X65.013 Y73.788 E8.87681
G1 X64.731 Y74.127 E8.89017
