; generated by SuperSlicer 2.5.59 on 2023-06-08 at 20:42:40 UTC

; 

; external perimeters extrusion width = 0.44mm
; perimeters extrusion width = 0.46mm
; infill extrusion width = 0.44mm
; solid infill extrusion width = 0.46mm
; top infill extrusion width = 0.44mm
; first layer extrusion width = 0.62mm

; external perimeters extrusion width = 0.44mm
; perimeters extrusion width = 0.46mm
; infill extrusion width = 0.44mm
; solid infill extrusion width = 0.46mm
; top infill extrusion width = 0.44mm
; first layer extrusion width = 0.62mm

; object:{"name":"Boitier HELTEC V3 bottom(V2)","id":"Boitier HELTEC V3 bottom(V2).STL id:0 copy 0","object_center":[47.667039,30.582700,0.000000],"boundingbox_center":[47.667039,30.582700,11.750000],"boundingbox_size":[69.000000,32.000000,23.500000]}
; object:{"name":"Boitier HELTEC V3 bottom(V2)","id":"Boitier HELTEC V3 bottom(V2).STL id:0 copy 1","object_center":[126.356335,31.499594,0.000000],"boundingbox_center":[126.356335,31.499594,11.750000],"boundingbox_size":[69.000000,32.000000,23.500000]}
; object:{"name":"Boitier HELTEC V3 top","id":"Boitier HELTEC V3 top.STL id:1 copy 0","object_center":[45.896128,68.034833,0.000000],"boundingbox_center":[45.896128,68.034833,2.250000],"boundingbox_size":[69.000000,32.000000,4.500000]}
; object:{"name":"Boitier HELTEC V3 top","id":"Boitier HELTEC V3 top.STL id:1 copy 1","object_center":[125.057212,68.078962,0.000000],"boundingbox_center":[125.057212,68.078962,2.250000],"boundingbox_size":[69.000000,32.000000,4.500000]}
; Total objects to print: 4
M486 T4
; plater:{"center":[86.126231,49.330831,0.000000],"boundingbox_center":[86.126231,49.330831,11.750000],"boundingbox_size":[149.460208,69.496262,23.500000]}

M140 S80 ; set bed temperature
G10 P0 R245 ; sets the standby temperature
G10 P0 S245 ; set temperature
;TYPE:Custom
;G28 ; home all axes
;G1 E30 F300 ;Extrude a bit
T0 ; choix de l'OmniaDrop V1.4
G29 S1 P"heightmap.csv";Load the height map from file and activate bed compensation
G1 X5 Y10 Z0.2 F3000 ; get ready to prime
G92 E0 ; reset extrusion distance
G1 X160 E15 F600 ; prime nozzle
G1 X180 F5000 ; quick wipe
M107
G21 ; set units to millimeters
G90 ; use absolute coordinates
M82 ; use absolute distances for extrusion
G92 E0
; Filament gcode
;_TOOLCHANGE 0
G10 P0 S245 ; set temperature
M116 ; wait for temperature to be reached
M190 S80 ; set bed temperature and wait for it to be reached
M107
;LAYER_CHANGE
;Z:0.3
;HEIGHT:0.3
G1 Z0.3 F7800
G1 E-1.2 F1800
; printing object Boitier HELTEC V3 bottom(V2).STL id:0 copy 0
M486 S0
G1 X16.663 Y18.079 F7800
G1 E0 F1800
;TYPE:Internal perimeter
;WIDTH:0.624381
G1 X78.671 Y18.088 E3.94119
G1 X78.671 Y43.086 E5.53007
G1 X16.663 Y43.086 E9.47126
G1 X16.663 Y18.139 E11.0569
G1 X16.103 Y17.519 F7800
G1 F1800
G1 X79.231 Y17.528 E15.06927
G1 X79.231 Y43.646 E16.72934
G1 X16.103 Y43.646 E20.74171
G1 X16.103 Y17.579 E22.39854
G1 X15.598 Y17.106 F7800
;TYPE:External perimeter
G1 F1800
G1 X15.699 Y17.008 E22.40751
G1 X15.881 Y16.959 E22.4195
G1 X79.504 Y16.968 E26.46335
G1 X79.65 Y17.019 E26.47319
G1 X79.711 Y17.07 E26.47821
G1 X79.755 Y17.145 E26.48377
G1 X79.791 Y17.293 E26.49346
G1 X79.791 Y43.88 E28.18331
G1 X79.736 Y44.059 E28.19523
G1 X79.635 Y44.158 E28.2042
G1 X79.453 Y44.206 E28.2162
G1 X15.87 Y44.206 E32.25753
G1 X15.69 Y44.152 E32.26945
G1 X15.592 Y44.051 E32.27842
G1 X15.543 Y43.868 E32.29041
G1 X15.543 Y17.285 E33.98002
G1 X15.58 Y17.163 E33.98812
;WIPE_START
G1 X15.995 Y17.149 F7800
;WIPE_END
G92 E0
G1 E-1.2 F1800
G1 X77.37 Y18.256 F7800
G1 E0 F1800
;TYPE:Solid infill
;WIDTH:0.621592
G1 F1200
G1 X78.262 Y19.147 E0.07977
G1 X78.262 Y19.939 E0.12988
G1 X76.819 Y18.497 E0.25897
G1 X76.027 Y18.497 E0.30909
G1 X78.262 Y20.731 E0.50907
G1 X78.262 Y21.523 E0.55918
G1 X75.235 Y18.496 E0.83003
G1 X74.443 Y18.496 E0.88015
G1 X78.262 Y22.315 E1.22189
G1 X78.262 Y23.107 E1.272
G1 X73.651 Y18.496 E1.68461
G1 X72.859 Y18.496 E1.73473
G1 X78.262 Y23.899 E2.21822
G1 X78.262 Y24.691 E2.26834
G1 X72.067 Y18.496 E2.82271
G1 X71.275 Y18.496 E2.87283
G1 X78.262 Y25.483 E3.49808
G1 X78.262 Y26.275 E3.54819
G1 X70.483 Y18.496 E4.24433
G1 X69.691 Y18.496 E4.29444
G1 X78.262 Y27.067 E5.06146
G1 X78.262 Y27.859 E5.11157
G1 X68.899 Y18.496 E5.94946
G1 X68.106 Y18.495 E5.99958
G1 X78.262 Y28.651 E6.90835
G1 X78.262 Y29.443 E6.95846
G1 X67.314 Y18.495 E7.93811
G1 X66.522 Y18.495 E7.98823
G1 X78.262 Y30.235 E9.03876
G1 X78.262 Y31.027 E9.08888
G1 X65.73 Y18.495 E10.21029
G1 X64.938 Y18.495 E10.26041
G1 X78.262 Y31.819 E11.4527
G1 X78.262 Y32.611 E11.50281
G1 X64.146 Y18.495 E12.76598
G1 X63.354 Y18.495 E12.8161
G1 X78.262 Y33.403 E14.15015
G1 X78.262 Y34.195 E14.20026
G1 X62.562 Y18.495 E15.60519
G1 X61.77 Y18.495 E15.65531
G1 X78.262 Y34.987 E17.13112
G1 X78.262 Y35.778 E17.18123
G1 X60.978 Y18.494 E18.72792
G1 X60.186 Y18.494 E18.77804
G1 X78.262 Y36.57 E20.39561
G1 X78.262 Y37.362 E20.44572
G1 X59.394 Y18.494 E22.13417
G1 X58.602 Y18.494 E22.18429
G1 X78.262 Y38.154 E23.94361
G1 X78.262 Y38.946 E23.99373
G1 X57.809 Y18.494 E25.82393
G1 X57.017 Y18.494 E25.87405
G1 X78.262 Y39.738 E27.77514
G1 X78.262 Y40.53 E27.82525
G1 X56.225 Y18.494 E29.79722
G1 X55.433 Y18.494 E29.84734
G1 X78.262 Y41.322 E31.89018
G1 X78.262 Y42.114 E31.9403
G1 X54.641 Y18.493 E34.05402
G1 X53.849 Y18.493 E34.10414
G1 X78.033 Y42.678 E36.26829
G1 X77.241 Y42.678 E36.3184
G1 X53.057 Y18.493 E38.48256
G1 X52.265 Y18.493 E38.53268
G1 X76.449 Y42.678 E40.69685
G1 X75.657 Y42.678 E40.74696
G1 X51.473 Y18.493 E42.91114
G1 X50.681 Y18.493 E42.96126
G1 X74.865 Y42.678 E45.12545
G1 X74.073 Y42.678 E45.17556
G1 X49.889 Y18.493 E47.33976
G1 X49.097 Y18.493 E47.38988
G1 X73.282 Y42.678 E49.55409
G1 X72.49 Y42.678 E49.6042
G1 X48.305 Y18.493 E51.76843
G1 X47.513 Y18.492 E51.81854
G1 X71.698 Y42.678 E53.98278
G1 X70.906 Y42.678 E54.03289
G1 X46.72 Y18.492 E56.19713
G1 X45.928 Y18.492 E56.24725
G1 X70.114 Y42.678 E58.4115
G1 X69.322 Y42.678 E58.46161
G1 X45.136 Y18.492 E60.62587
G1 X44.344 Y18.492 E60.67599
G1 X68.53 Y42.678 E62.84026
G1 X67.738 Y42.678 E62.89038
G1 X43.552 Y18.492 E65.05466
G1 X42.76 Y18.492 E65.10478
G1 X66.946 Y42.678 E67.26907
G1 X66.154 Y42.678 E67.31918
G1 X41.968 Y18.492 E69.48348
G1 X41.176 Y18.492 E69.5336
G1 X65.362 Y42.678 E71.69792
G1 X64.57 Y42.678 E71.74803
G1 X40.384 Y18.491 E73.91235
G1 X39.592 Y18.491 E73.96247
G1 X63.778 Y42.678 E76.1268
G1 X62.986 Y42.678 E76.17692
G1 X38.8 Y18.491 E78.34126
G1 X38.008 Y18.491 E78.39138
G1 X62.194 Y42.678 E80.55573
G1 X61.402 Y42.678 E80.60584
G1 X37.216 Y18.491 E82.77021
G1 X36.423 Y18.491 E82.82033
G1 X60.61 Y42.678 E84.9847
G1 X59.818 Y42.678 E85.03481
G1 X35.631 Y18.491 E87.1992
G1 X34.839 Y18.491 E87.24932
G1 X59.026 Y42.678 E89.41371
G1 X58.234 Y42.678 E89.46382
G1 X34.047 Y18.491 E91.62823
G1 X33.255 Y18.49 E91.67835
G1 X57.442 Y42.678 E93.84276
G1 X56.65 Y42.678 E93.89288
G1 X32.463 Y18.49 E96.0573
G1 X31.671 Y18.49 E96.10742
G1 X55.858 Y42.678 E98.27186
G1 X55.066 Y42.678 E98.32197
G1 X30.879 Y18.49 E100.48641
G1 X30.087 Y18.49 E100.53653
G1 X54.274 Y42.678 E102.70099
G1 X53.483 Y42.678 E102.7511
G1 X29.295 Y18.49 E104.91557
G1 X28.503 Y18.49 E104.96569
G1 X52.691 Y42.678 E107.13016
G1 X51.899 Y42.678 E107.18028
G1 X27.711 Y18.49 E109.34476
G1 X26.919 Y18.489 E109.39488
G1 X51.107 Y42.678 E111.55938
G1 X50.315 Y42.678 E111.60949
G1 X26.127 Y18.489 E113.774
G1 X25.334 Y18.489 E113.82412
G1 X49.523 Y42.678 E115.98864
G1 X48.731 Y42.678 E116.03875
G1 X24.542 Y18.489 E118.20328
G1 X23.75 Y18.489 E118.2534
G1 X47.939 Y42.678 E120.41793
G1 X47.147 Y42.678 E120.46805
G1 X22.958 Y18.489 E122.63259
G1 X22.166 Y18.489 E122.68271
G1 X46.355 Y42.678 E124.84727
G1 X45.563 Y42.678 E124.89738
G1 X21.374 Y18.489 E127.06195
G1 X20.582 Y18.489 E127.11207
G1 X44.771 Y42.678 E129.27665
G1 X43.979 Y42.678 E129.32676
G1 X19.79 Y18.488 E131.49135
G1 X18.998 Y18.488 E131.54147
G1 X43.187 Y42.678 E133.70607
G1 X42.395 Y42.678 E133.75619
G1 X18.206 Y18.488 E135.9208
G1 X17.414 Y18.488 E135.97091
G1 X41.603 Y42.678 E138.13553
G1 X40.811 Y42.678 E138.18565
G1 X17.072 Y18.939 E140.30996
G1 X17.072 Y19.731 E140.36007
G1 X40.019 Y42.678 E142.41351
G1 X39.227 Y42.678 E142.46362
G1 X17.072 Y20.522 E144.44619
G1 X17.072 Y21.314 E144.4963
G1 X38.435 Y42.678 E146.408
G1 X37.643 Y42.678 E146.45811
G1 X17.072 Y22.106 E148.29894
G1 X17.072 Y22.898 E148.34906
G1 X36.851 Y42.678 E150.11902
G1 X36.059 Y42.678 E150.16913
G1 X17.072 Y23.69 E151.86822
G1 X17.072 Y24.482 E151.91833
G1 X35.267 Y42.678 E153.54656
G1 X34.475 Y42.678 E153.59667
G1 X17.072 Y25.274 E155.15402
G1 X17.072 Y26.066 E155.20413
G1 X33.684 Y42.678 E156.69062
G1 X32.892 Y42.678 E156.74073
G1 X17.072 Y26.858 E158.15634
G1 X17.072 Y27.65 E158.20645
G1 X32.1 Y42.678 E159.5512
G1 X31.308 Y42.678 E159.60131
G1 X17.072 Y28.442 E160.87519
G1 X17.072 Y29.234 E160.9253
G1 X30.516 Y42.678 E162.1283
G1 X29.724 Y42.678 E162.17842
G1 X17.072 Y30.026 E163.31055
G1 X17.072 Y30.818 E163.36066
G1 X28.932 Y42.678 E164.42193
G1 X28.14 Y42.678 E164.47204
G1 X17.072 Y31.61 E165.46244
G1 X17.072 Y32.402 E165.51255
G1 X27.348 Y42.678 E166.43208
G1 X26.556 Y42.678 E166.48219
G1 X17.072 Y33.194 E167.33085
G1 X17.072 Y33.986 E167.38096
G1 X25.764 Y42.678 E168.15875
G1 X24.972 Y42.678 E168.20886
G1 X17.072 Y34.778 E168.91578
G1 X17.072 Y35.57 E168.9659
G1 X24.18 Y42.678 E169.60195
G1 X23.388 Y42.678 E169.65206
G1 X17.072 Y36.362 E170.21724
G1 X17.072 Y37.154 E170.26735
G1 X22.596 Y42.678 E170.76166
G1 X21.804 Y42.678 E170.81177
G1 X17.072 Y37.946 E171.23522
G1 X17.072 Y38.738 E171.28533
G1 X21.012 Y42.678 E171.6379
G1 X20.22 Y42.678 E171.68801
G1 X17.072 Y39.53 E171.96972
G1 X17.072 Y40.321 E172.01983
G1 X19.428 Y42.678 E172.23066
G1 X18.636 Y42.678 E172.28077
G1 X17.072 Y41.113 E172.42074
G1 X17.072 Y41.905 E172.47085
G1 X18.085 Y42.918 E172.56149
G92 E0
G1 E-1.2 F1800
; stop printing object Boitier HELTEC V3 bottom(V2).STL id:0 copy 0
M486 S-1
; printing object Boitier HELTEC V3 top.STL id:1 copy 0
M486 S2
G1 X22.205 Y67.742 F7800
G1 E0 F1800
;TYPE:Internal perimeter
;WIDTH:0.624381
G1 F900
G1 X22.527 Y67.999 E0.02622
G1 X22.014 Y68.573 E0.07515
G1 X21.458 Y68.023 E0.12488
G1 X21.996 Y67.576 E0.16937
G1 X22.158 Y67.704 E0.1825
G92 E0
G1 E-1.2 F1800
G1 X19.696 Y61.797 F7800
G1 E0 F1800
G1 X19.015 Y61.689 E0.04386
G1 X15.544 Y61.681 E0.26448
G1 X15.544 Y57.655 E0.52033
G1 X19.58 Y57.654 E0.77686
G1 X19.58 Y61.061 E0.9934
G1 X19.687 Y61.738 E1.03699
G92 E0
G1 E-1.2
G1 X19.491 Y68.006 F7800
G1 E0 F1800
G1 X18.98 Y68.607 E0.0502
G1 X18.764 Y69.182 E0.08922
G1 X18.763 Y70.626 E0.18096
G1 X18.472 Y70.917 E0.20713
G1 X14.474 Y70.929 E0.46125
G1 X14.01 Y71.032 E0.49146
G1 X13.302 Y71.312 E0.53984
G1 X13.302 Y64.758 E0.95642
G1 X14.01 Y65.038 E1.00481
G1 X14.474 Y65.141 E1.03502
G1 X18.472 Y65.153 E1.28914
G1 X18.762 Y65.443 E1.31524
G1 X18.758 Y66.769 E1.39949
G1 X18.956 Y67.476 E1.44619
G1 X19.449 Y67.964 E1.49025
G92 E0
G1 E-1.2
G1 X19.696 Y74.272 F7800
G1 E0 F1800
G1 X19.58 Y75.009 E0.04741
G1 X19.58 Y78.416 E0.26395
G1 X15.544 Y78.414 E0.52048
G1 X15.544 Y74.389 E0.77632
G1 X19.015 Y74.38 E0.99695
G1 X19.637 Y74.282 E1.03699
G92 E0
G1 E-1.2
G1 X29.489 Y79.442 F7800
G1 E0 F1800
G1 X58.803 Y79.442 E1.86325
G1 X58.806 Y60.626 E3.05924
G1 X29.487 Y60.626 E4.92276
G1 X29.489 Y79.382 E6.11495
G1 X30.049 Y78.882 F7800
G1 F1800
G1 X58.244 Y78.882 E7.90702
G1 X58.246 Y61.186 E9.03183
G1 X30.047 Y61.186 E10.82414
G1 X30.049 Y78.822 E11.94515
G1 X30.609 Y78.322 F7800
;TYPE:External perimeter
G1 F1800
G1 X57.684 Y78.322 E13.66603
G1 X57.685 Y61.746 E14.71966
G1 X30.607 Y61.746 E16.44078
G1 X30.609 Y78.262 E17.49059
;WIPE_START
G1 X30.609 Y78.722 F7800
;WIPE_END
G92 E0
G1 E-1.2 F1800
G1 X21.315 Y54.38 F7800
G1 E0 F1800
;TYPE:Internal perimeter
G1 X21.413 Y53.941 E0.02857
G1 X78.49 Y53.946 E3.65642
G1 X78.49 Y82.129 E5.44772
G1 X21.411 Y82.129 E9.07567
G1 X21.314 Y81.69 E9.10424
G1 X21.68 Y81.519 E9.12995
G1 X22.071 Y81.245 E9.16028
G1 X22.409 Y80.908 E9.19061
G1 X22.683 Y80.517 E9.22094
G1 X22.884 Y80.085 E9.25127
G1 X23.008 Y79.624 E9.2816
G1 X23.044 Y79.211 E9.30795
G1 X23.044 Y75.593 E9.53789
G1 X24.756 Y73.812 E9.69496
G1 X25.004 Y73.397 E9.72565
G1 X25.214 Y72.738 E9.76965
G1 X25.231 Y69.246 E9.99155
G1 X25.057 Y68.701 E10.02791
G1 X24.528 Y67.999 E10.08384
G1 X25.081 Y67.38 E10.13654
G1 X25.234 Y66.71 E10.18026
G1 X25.214 Y63.331 E10.39501
G1 X25.004 Y62.672 E10.43895
G1 X24.756 Y62.258 E10.46965
G1 X23.044 Y60.476 E10.62672
G1 X23.044 Y56.859 E10.85666
G1 X23.008 Y56.446 E10.883
G1 X22.884 Y55.985 E10.91333
G1 X22.683 Y55.553 E10.94366
G1 X22.409 Y55.162 E10.97399
G1 X22.071 Y54.824 E11.00432
G1 X21.68 Y54.55 E11.03466
G1 X21.37 Y54.406 E11.05645
G92 E0
G1 E-1.2
G1 X22.425 Y69.003 F7800
G1 E0 F1800
G1 X22.32 Y69.331 E0.02188
G1 X22.323 Y72.13 E0.19983
G1 X22.237 Y72.249 E0.20913
G1 X20.664 Y73.822 E0.35055
G1 X20.473 Y74.046 E0.36926
G1 X20.221 Y74.54 E0.40449
G1 X20.14 Y75.053 E0.43752
G1 X20.14 Y78.976 E0.68687
G1 X14.984 Y78.974 E1.01459
G1 X14.984 Y73.83 E1.34152
G1 X18.97 Y73.82 E1.59489
G1 X19.482 Y73.739 E1.62785
G1 X20.004 Y73.474 E1.66505
G1 X21.141 Y72.356 E1.76637
G1 X21.334 Y72.129 E1.78532
G1 X21.586 Y71.636 E1.82055
G1 X21.667 Y71.122 E1.8536
G1 X21.666 Y69.284 E1.97041
G1 X21.507 Y68.859 E1.99928
G1 X21.123 Y68.479 E2.0336
G1 X20.7 Y68.327 E2.06215
G1 X20.251 Y68.327 E2.0907
G1 X19.761 Y68.553 E2.12502
G1 X19.47 Y68.896 E2.15358
G1 X19.324 Y69.284 E2.17995
G1 X19.323 Y70.736 E2.27223
G1 X19.305 Y70.851 E2.2796
G1 X19.237 Y70.944 E2.28694
G1 X18.79 Y71.39 E2.32707
G1 X18.697 Y71.458 E2.33442
G1 X18.582 Y71.477 E2.34184
G1 X14.536 Y71.489 E2.59899
G1 X14.174 Y71.569 E2.62252
G1 X13.853 Y71.696 E2.64451
G1 X13.556 Y71.873 E2.66649
G1 X13.29 Y72.094 E2.68847
G1 X12.742 Y72.724 E2.74151
G1 X12.742 Y63.346 E3.33757
G1 X13.29 Y63.975 E3.39061
G1 X13.555 Y64.197 E3.41259
G1 X13.853 Y64.374 E3.43457
G1 X14.174 Y64.501 E3.45655
G1 X14.536 Y64.581 E3.48009
G1 X18.582 Y64.593 E3.73723
G1 X18.697 Y64.611 E3.74466
G1 X18.79 Y64.679 E3.752
G1 X19.3 Y65.189 E3.7978
G1 X19.323 Y65.332 E3.80702
G1 X19.319 Y66.693 E3.89352
G1 X19.455 Y67.183 E3.92584
G1 X19.896 Y67.619 E3.96524
G1 X20.495 Y67.778 E4.00464
G1 X21.056 Y67.629 E4.0415
G1 X21.401 Y67.342 E4.07006
G1 X21.609 Y66.988 E4.09612
G1 X21.671 Y66.655 E4.11769
G1 X21.667 Y64.946 E4.22628
G1 X21.586 Y64.434 E4.25924
G1 X21.334 Y63.94 E4.29446
G1 X21.141 Y63.714 E4.31342
G1 X20.004 Y62.596 E4.41474
G1 X19.482 Y62.33 E4.45194
G1 X18.97 Y62.249 E4.4849
G1 X14.984 Y62.239 E4.73827
G1 X14.984 Y57.096 E5.0652
G1 X20.14 Y57.094 E5.39292
G1 X20.14 Y61.017 E5.64226
G1 X20.216 Y61.495 E5.67308
G1 X20.355 Y61.831 E5.69617
G1 X20.64 Y62.223 E5.72699
G1 X22.237 Y63.821 E5.87059
G1 X22.323 Y63.939 E5.87989
G1 X22.32 Y66.777 E6.06025
G1 X22.532 Y67.286 E6.09531
G1 X23.003 Y67.662 E6.13361
G1 X23.597 Y67.763 E6.1719
G1 X24.165 Y67.564 E6.21019
G1 X24.567 Y67.115 E6.24849
G1 X24.674 Y66.648 E6.2789
G1 X24.655 Y63.42 E6.4841
G1 X24.491 Y62.904 E6.51849
G1 X24.309 Y62.6 E6.54101
G1 X22.506 Y60.725 E6.70635
G1 X22.484 Y60.583 E6.71547
G1 X22.484 Y56.883 E6.95064
G1 X22.454 Y56.544 E6.97231
G1 X22.356 Y56.177 E6.99641
G1 X22.196 Y55.834 E7.02052
G1 X21.978 Y55.523 E7.04462
G1 X21.71 Y55.255 E7.06872
G1 X21.399 Y55.037 E7.09283
G1 X21.056 Y54.877 E7.11693
G1 X20.689 Y54.779 E7.14103
G1 X20.35 Y54.749 E7.16271
G1 X14.839 Y54.749 E7.51298
G1 X14.514 Y54.765 E7.53362
G1 X14.145 Y54.85 E7.55773
G1 X13.795 Y54.997 E7.58185
G1 X13.476 Y55.203 E7.60596
G1 X12.742 Y55.884 E7.66961
G1 X12.742 Y54.083 E7.78408
G1 X12.764 Y53.879 E7.79708
G1 X12.866 Y53.666 E7.81212
G1 X13.023 Y53.507 E7.82632
G1 X13.133 Y53.443 E7.8344
G1 X13.264 Y53.401 E7.84315
G1 X13.444 Y53.381 E7.85469
G1 X78.44 Y53.386 E11.98584
G1 X78.66 Y53.443 E12.00025
G1 X78.777 Y53.511 E12.00886
G1 X78.871 Y53.596 E12.01694
G1 X78.992 Y53.784 E12.03114
G1 X79.03 Y53.902 E12.03905
G1 X79.05 Y54.083 E12.05059
G1 X79.05 Y81.987 E13.82417
G1 X79.015 Y82.236 E13.84016
G1 X78.92 Y82.415 E13.85308
G1 X78.838 Y82.506 E13.86084
G1 X78.652 Y82.629 E13.87504
G1 X78.529 Y82.669 E13.88327
